X: 1
T: The Birmingham Reel
M: 4/4
L: 1/8
R: reel
S: Four Men &amp; a Dog
K: Gmaj
g3f gdBd|g2dg fgaf|~g3f gdBd|1 ecAc BGBd:|2 ecAc BGAB||
|:GB~B2 G2ge|fddc A2BA|GABd gage|1 fdcA AGAB:|2 fdcA AGBd||
